!!!OTL: "Der Freier" DES ABENDS ALS ICH SCHLAFEN GING
!!!ARE: Europa, Mitteleuropa, Deutschland, Nord - Deutschland
!!!SCT: Z1180
!!!YEM: Copyright 1995, estate of Helmut Schaffrath.
**kern
*ICvox
*Ivox
*M4/4
*k[f#]
*G:
{4d
=1
4.g
8a
4b
4cc
=2
4.dd
8ee
4dd}
{4dd
=3
4.cc
8b
4cc
4dd
=4
2b
4r}
{4d
=5
4.g
8a
4b
4cc
=6
4.dd
8ee
4dd}
{4dd
=7
4.cc
8b
4cc
4dd
=8
2b
4r}
{4dd
=9
8ee
8dd
8dd
8b
4cc
4dd
=10
4b
4dd
4b}
{4g
=11
4a
4cc
4a
4a
=12
4b
4ee
4dd}
{4dd
=13
8ee
8dd
8dd
8b
4cc
4dd
=14
4b
4dd
4b}
{4g
=15
4a
4cc
4a
4f#
=16
2g
4r}
==
!!!AGN: Liebes - Lied, verlassene Liebe
!!!ONB: ESAC (Essen Associative Code) Database: ZUCCAL
!!!AMT: simple quadruple
!!!AIN: vox
!!!EED: Helmut Schaffrath
!!!EEV: 1.0
*-
